!!!COM: Bach, Johann Sebastian
!!!OPR: Joh. Seb. Bachs vierstimmige Choralgesänge
!!!XEN: Four-part Chorales
!!!OTL: 89. Heut' triumphiret Gottes Sohn
!!!SCT: BWV 342
!!!SCA: Thematisch-systematisches Verzeichnis der musikalischen Werke Johann Sebastian Bach: Bach-Werke-Verzeichnis (Schmieder)
!!!YOR: Bach Gesellschaft Edition xxxix
!!!ENC: Steven Rasmussen
!!!CDT: 1685/3//-1750/7/28/
!!!OCY: Deutschland
!!!YEC: Copyright (c) 1994, 2000 Center for Computer Assisted Research in the Humanities
!!!YEM: Rights to all derivative editions reserved
!!!YEN: United States of America
**kern	**kern	**kern	**kern	**silbe
*I:[BASSO]	*I:[TENORE]	*I:[ALTO]	*I:[SOPRANO]	*I:[SOPRANO]
*clefF4	*clefGv2	*clefG2	*clefG2	*
*k[]	*k[]	*k[]	*k[]	*
*a:	*a:	*a:	*a:	*
*M3/4	*M3/4	*M3/4	*M3/4	*
=1-	=1-	=1-	=1-	=1-
4A	4c	8eL	4cc	Heut'
.	.	8fJ	.	.
4E	4c	4g	4cc	tri-
4G	4B	4g	4dd	-um-
=2	=2	=2	=2	=2
2C	4c	2g	2ee	-phi-
.	4B	.	.	.
4D	4A	4f	4dd	-ret
=3	=3	=3	=3	=3
(4E	(4G	4e	2cc	Got-
4F)	4A)	2d	.	.
4G	4G	.	4b	-tes
=4	=4	=4	=4	=4
2.C;	2.G;	2.e;	2.cc;	Sohn,
=5	=5	=5	=5	=5
4F	4A	4f	4cc	der
4E	4G	4g	4cc	von
4F	4A	4f	4cc	dem
=6	=6	=6	=6	=6
4BB	4G#	4f	4dd	Tod
4C	4A	4e	4cc	.
4D	4B	4d	4b	er-
=7	=7	=7	=7	=7
(4C	4c	(4e	2a	-stan-
4D)	2B	4f)	.	.
4E	.	4e	4g#	-den
=8	=8	=8	=8	=8
2AA;	2c;	2e;	2a;	schon,
4E	4G#	4e	4b	Hal-
=9	=9	=9	=9	=9
2A	8AL	2e	2cc	-le-
.	8BJ	.	.	.
.	4c	.	.	.
4G	4B	4g	4dd	-lu-
=10	=10	=10	=10	=10
2c	2c	2g	4.ee	-ja,
.	.	.	8ff	.
4B	4d	4g	4gg	hal-
=11	=11	=11	=11	=11
4A	4c	4cc	4ff	-le-
4G	4e	4b	4ee	.
4F	4f	4a	4dd	-lu-
=12	=12	=12	=12	=12
2.E;	2.B;	2.g#;	2.ee;	-ja!
=13	=13	=13	=13	=13
4A	4c	4a	4ee	mit
4E	4c	8gL	4ee	gro-
.	.	8fJ	.	.
4C	4c	8gL	4ee	-sser
.	.	8aJ	.	.
=14	=14	=14	=14	=14
4G	8dL	4b	2dd	Pracht
.	8c	.	.	.
4B	8d	4g	.	.
.	8eJ	.	.	.
4A	4f	4a	4dd	und
=15	=15	=15	=15	=15
2G#	2e	2b	4ee	Herr-
.	.	.	4dd	.
4A	4e	4a	4cc	-lich-
=16	=16	=16	=16	=16
2.E;	2.e;	2.g#;	2.b;	-keit,
=17	=17	=17	=17	=17
8EL	4e	8gL	4b	dess
8DJ	.	8aJ	.	.
8EL	4e	8gL	4b	dank'n
8FJ	.	8fJ	.	.
4G	4A	4e	4cc#	wir
=18	=18	=18	=18	=18
4F	2A	4d	4dd	ihm
4E	.	4e	4cc	.
4D	4G#	4f	4b	in
=19	=19	=19	=19	=19
4C	4A	4e	2a	E-
4D	4d	4f	.	.
4E	4B	4e	4g#	-wig-
=20	=20	=20	=20	=20
2AA;	2c;	2e;	2a;	-keit.
4E	4e	4g#	4b	Hal-
=21	=21	=21	=21	=21
2A	4e	2a	2cc	-le-
.	4f	.	.	.
4B	4d	4g	4dd	-lu-
=22	=22	=22	=22	=22
4c	2c	2g	2ee	-ja,
4B	.	.	.	.
4A	4c	4f#	4ee	hal-
=23	=23	=23	=23	=23
2B	2B	4f#	4ee	-le-
.	.	(4g#	2dd#	-lu-
4BB	4B	4a)	.	.
=24	=24	=24	=24	=24
2.E;	2.B;	2.g#;	2.ee;	-ja!
==|!	==|!	==|!	==|!	==|!
*-	*-	*-	*-	*-
!!!RWG: Key is interpreted using the Humdrum key tool.
!!!URL-pdf: https://s9.imslp.org/files/imglnks/usimg/6/6b/IMSLP24489-PMLP09471-CCARH_Bach_Chorales.pdf#page=62 Musedata edition
!!!URL-pdf: https://s9.imslp.org/files/imglnks/usimg/7/7a/IMSLP04155-Bach_-_BGA_253-438.pdf#page=48 	Bach-Gesellschaft Ausgabe, Band 39 (pp.175-276) Leipzig: Breitkopf und Härtel, 1892. Plate B.W. XXXIX.
!!!END: 1994/06/10
!!!EMD: Converted from MuseData to Humdrum Dec 19, 2000, by Andreas Kornstaedt using muse2kern.
!!!EED: Craig Stuart Sapp
!!!EEV: 2024/03/31
!!!filter-keyboard: satb2gs
